!!!!SEGMENT: pl-wn--sd-xvi-qu-273--142_gomolka-mikolaj--pana-wolam-pana-prosze.krn
!!!cenid: 15xx:347
!!!COM: Gomółka, Mikołaj
!!!COM-rismid: pe30013343
!!!CDT: ~1535->1591/04/30
!!!CNT: Polish
!!!GTL: Melodiae na psalterz polski
!!!OTL: CXLII. Pana wołam, Pana proszę,
!!!ONB: PSAL: CLXII. Voce mea ad dominum clamavi: voce mea ad dominum deprecatus ſum.
!!!PDT: 1580
!!!AGN: Sacred
!!!SMS-siglum: PL-Wn
!!!SMS-shelfmark: SD XVI.Qu.273
!!!SMS-shelfwork: 142 G
!!!NIFC-rismid:
!!!ONB-nifc: Melodiae na psalterz polski
**kern	**text	**kern	**text	**kern	**text	**kern	**text
*part4	*part4	*part3	*part3	*part2	*part2	*part1	*part1
*staff4	*staff4	*staff3	*staff3	*staff2	*staff2	*staff1	*staff1
*clefF3	*	*clefC3	*	*clefC2	*	*clefG2	*
*k[b-B-]	*	*k[b-]	*	*k[b-B-]	*	*k[b-]	*
*c:	*	*c:	*	*c:	*	*c:	*
*M2/1	*	*M2/1	*	*M2/1	*	*M2/1	*
*met(C|)	*	*met(C|)	*	*met(C|)	*	*met(C|)	*
*I"BASSUS.	*	*I"TENOR.	*	*I"ALTUS.	*	*I"CANTUS.	*
=1-	=1	=1-	=1	=1-	=1	=1-	=1
!LO:TX:t=P:dwa bemole przy kluczu:problem	!	!	!	!LO:TX:t=P:dwa bemole przy kluczu:problem	!	!LO:TX:t=P:żle zapisany numer psalmu, powinno być CXLII:problem	!
1D/	PA-	2.d\	PA-	1A/	PA-	1d/	PA-
.	.	4c/	-ná	.	.	.	.
2G\	-ná	2B-/	wo-	4B-/	-ná	2b-/	-ná
.	.	.	.	4c/	.	.	.
2G\	wo-	2B-/	-łam,	4d/	wo-	2b-/	wo-
.	.	.	.	4e/	.	.	.
=2-	=2	=2-	=2	=2-	=2	=2-	=2
2.A\	-łam,	2.c/	pá-	2.f\	-łam,	2a/	-łam,
.	.	.	.	.	.	2.cc\	pá-
4G\	.	4B-/	-ná	4e/	pá-	.	.
2F/	pá-	2A/	pro-	2.f\	-ná	.	.
.	.	.	.	.	.	4b-/	-ná
2F/	-ná	2A/	-ſʒę,	.	.	1a/	pro-
.	.	.	.	4e/	pro-	.	.
=3-	=3	=3-	=3	=3-	=3	=3-	=3
1G\	pro-	1B-/	.	4d/	.	.	.
.	.	.	.	4c/	.	.	.
.	.	.	.	2d/	-ſʒę,	2g/	-ſʒę,
2D/	.	2A/	.	2d/	Rę-	2a/	Rę-
2D/	-ſʒę,	2f\	Rę-	2a\	-ce	2dd\	-ce
=4-	=4	=4-	=4	=4-	=4	=4-	=4
2.d\	Rę-	2.f\	-ce	2.b-\	ſwé	1dd\	ſwé
4c\	-ce	4e\	ſwé	4a\	.	.	.
2.B-\	ſwé	2.d\	knie-	2.g\	knie-	2dd\	knie-
.	.	.	.	.	.	2dd\	-mu
4A\	knie-	4c/	-mu	4f\	.	.	.
=5-	=5	=5-	=5	=5-	=5	=5-	=5
2G\	-mu	2B-/	wy-	2e/	-mu	2ee\	wy-
2F/	wy-	2A/	.	2d/	wy-	2ff\	-no-
4E/	-no-	4G/	-no-	4c/	-no-	1gg\	.
4D/	.	4F/	.	2d/	.	.	.
2E/	.	2G/	.	.	.	.	.
.	.	.	.	4c/	.	.	.
=6-	=6	=6-	=6	=6-	=6	=6-	=6
!!LO:PB:g=original
2D/	-ſʒę:	2A/	-ſʒę:	2d/	-ſʒę:	2ff\	-ſʒę:
2B-\	Przed	2d\	Przed	2b-\	Przed	2dd\	Przed
1F\	nim	1c\	nim	1a\	nim	1ff\	nim
=7-	=7	=7-	=7	=7-	=7	=7-	=7
2C/	krʒyw-	2c/	krʒyw-	2g\	krʒyw-	2ee\	krʒyw-
1G\	-(dę)	2c/	-(dę)	2.g\	-(dę)	1dd\	-(dę)
.	.	2B-/	.	.	.	.	.
.	.	.	.	4f\	.	.	.
1A\	ſwą	1c/	ſwą	1e\	ſwą	1cc\	ſwą
=8-	=8	=8-	=8	=8-	=8	=8-	=8
.	.	.	.	.	.	.	.
2F/	prʒe-	2A/	prʒe-	2f\	prʒe-	2dd\	prʒe-
1G\	-kłá-	2.B-/	-kłá-	2.d/	-kłá-	1b-\	-kłá-
.	.	4c/	.	4e/	.	.	.
=9-	=9	=9-	=9	=9-	=9	=9-	=9
2D/	-(dam,)	2d\	-dam,	2f\	-dam,	2a/	-(dam,)
1D/	Je-	1d\	Je-	1f\	Je-	1a/	Je-
1C/	-mu	1e-X\	-mu	2g\	-mu	1cc\	-mu
.	.	.	.	2g\	ʒ̇al	.	.
=10-	=10	=10-	=10	=10-	=10	=10-	=10
.	.	.	.	.	.	.	.
!	!	!LO:SIC:s=2e-:v	!	!	!	!	!
2C/	ʒ̇al	2eny\	ʒ̇al	2.g\	ſwóy	2cc\	ʒ̇al
2G\	ſwóy	2d\	ſwóy	.	.	2bX/	ſwóy
.	.	.	.	4a\	.	.	.
2G\	o-	2d\	o-	2b-\	o-	1dd\	o-
=11-	=11	=11-	=11	=11-	=11	=11-	=11
2F#X/	-po-	2A/	-po-	2a\	-po-	.	.
2G\	-wiá-	2B-/	-wiá-	1g\	-wiá-	2dd\	-po-
1D/	.	1A/	.	.	.	2.dd\	-wiá-
.	.	.	.	2f\	.	.	.
.	.	.	.	.	.	4cc\	.
=12-	=12	=12-	=12	=12-	=12	=12-	=12
000G\	-dam.	000G/	-dam.	000g\	-dam.	000bnX\	-dam.
==	==	==	==	==	==	==	==
*-	*-	*-	*-	*-	*-	*-	*-
!!!RDF**kern: l = terminal long
!!!system-decoration: s1,s2,s3,s4
!!!ENC: Marta Lawrence
!!!END: 2020-02-25
!!!URL-scan: https://polona.pl/item/melodiae-na-psalterz-polski,Nzk3MTM4ODQ/332 Scan on Polona
!!!IIIF: https://polona.pl/iiif/item/Nzk3MTM4ODQ/manifest.json
